X:1
T:Title
%%score { 1 | 2 }
L:1/8
M:3/4
K:Ab
V:1 treble nm="Grand Piano"
V:2 bass 
V:1
 z2 z2[Q:1/4=100] [CE]>[CE] | [CE]3 [CE] [CA]>[F,DF] | [A,CE]6 | [CEA]3 [CEA] (3[A,EA][DG][CA] | %4
[M:5/8] [Ec]2 [DB]3 |[M:1/4] [CE]>[CE] |[M:3/4] [CE]3 [CE] [CA]>[DF] | [CE]6 | A3 A (3GF[B,EG] | %9
[M:5/8] [DEB]2 [CEA]3 |[M:1/4] (3ccc |[M:3/4] e3 A A>G | G4 G>A | B3 [EG] [EA]B | c4 c>c | %15
 e3 c B>c | [Fd]6 | A3 A (3GF[B,EG] |[M:5/8] [DEB]2 [CEA]3 |] %19
V:2
 z2 z2 [A,,A,]>[A,,A,] | [A,,A,]3 [A,,A,] [A,,E,]>A,, | A,,6 | A,,3 A,, (3C,[B,,E,][A,,A,] | %4
[M:5/8] [E,A,]2 [E,G,]3 |[M:1/4] [A,,A,]>[A,,A,] |[M:3/4] [A,,A,]3 [A,,A,] [A,,E,]>[A,,F,] | %7
 [A,,A,]6 | [E,CE]3 [E,CE] (3[E,-B,E-][E,A,E]E, |[M:5/8] E,2 A,,3 |[M:1/4] (3[A,E][A,E][A,E] | %11
[M:3/4] [A,CE]3 [A,CE] [E,CE]>[E,B,E] | [E,B,E]4 [E,B,E]>[E,CE] | [E,DE]3 [D,B,] [C,A,][E,G,E] | %14
 [A,E]4 [A,E]>[A,E] | [A,CE]3 [A,E] [E,G,E]>[A,_G] | [D,A,]6 | %17
 [E,CE]3 [E,CE] (3[E,-B,E-][E,A,E]E, |[M:5/8] E,2 A,,3 |] %19

